svg/file/copy_3_fill.svg

<?xml version="1.0" encoding="UTF-8"?>
<svg width="24px" height="24px" viewBox="0 0 24 24" version="1.1" xmlns="http://www.w3.org/2000/svg" xmlns:xlink="http://www.w3.org/1999/xlink">
    <title>copy_3_fill</title>
    <g id="页面-1" stroke="none" stroke-width="1" fill="none" fill-rule="evenodd">
        <g id="File" transform="translate(-144.000000, -336.000000)">
            <g id="copy_3_fill" transform="translate(144.000000, 336.000000)">
                 <path d="M24,0 L24,24 L0,24 L0,0 L24,0 Z M12.5934901,23.257841 L12.5819402,23.2595131 L12.5108777,23.2950439 L12.4918791,23.2987469 L12.4918791,23.2987469 L12.4767152,23.2950439 L12.4056548,23.2595131 C12.3958229,23.2563662 12.3870493,23.2590235 12.3821421,23.2649074 L12.3780323,23.275831 L12.360941,23.7031097 L12.3658947,23.7234994 L12.3769048,23.7357139 L12.4804777,23.8096931 L12.4953491,23.8136134 L12.4953491,23.8136134 L12.5071152,23.8096931 L12.6106902,23.7357139 L12.6232938,23.7196733 L12.6232938,23.7196733 L12.6266527,23.7031097 L12.609561,23.275831 C12.6075724,23.2657013 12.6010112,23.2592993 12.5934901,23.257841 L12.5934901,23.257841 Z M12.8583906,23.1452862 L12.8445485,23.1473072 L12.6598443,23.2396597 L12.6498822,23.2499052 L12.6498822,23.2499052 L12.6471943,23.2611114 L12.6650943,23.6906389 L12.6699349,23.7034178 L12.6699349,23.7034178 L12.678386,23.7104931 L12.8793402,23.8032389 C12.8914285,23.8068999 12.9022333,23.8029875 12.9078286,23.7952264 L12.9118235,23.7811639 L12.8776777,23.1665331 C12.8752882,23.1545897 12.8674102,23.1470016 12.8583906,23.1452862 L12.8583906,23.1452862 Z M12.1430473,23.1473072 C12.1332178,23.1423925 12.1221763,23.1452606 12.1156365,23.1525954 L12.1099173,23.1665331 L12.0757714,23.7811639 C12.0751323,23.7926639 12.0828099,23.8018602 12.0926481,23.8045676 L12.108256,23.8032389 L12.3092106,23.7104931 L12.3186497,23.7024347 L12.3186497,23.7024347 L12.3225043,23.6906389 L12.340401,23.2611114 L12.337245,23.2485176 L12.337245,23.2485176 L12.3277531,23.2396597 L12.1430473,23.1473072 Z" id="MingCute" fill-rule="nonzero"></path>
                <path d="M9,2 C7.89543,2 7,2.89543 7,4 L7,5 C7,5.55228 7.44772,6 8,6 C8.55228,6 9,5.55228 9,5 L9,4 L10,4 C10.5523,4 11,3.55228 11,3 C11,2.44772 10.5523,2 10,2 L9,2 Z M14,2 C13.4477,2 13,2.44772 13,3 C13,3.55228 13.4477,4 14,4 L15,4 C15.5523,4 16,3.55228 16,3 C16,2.44772 15.5523,2 15,2 L14,2 Z M19,2 C18.4477,2 18,2.44772 18,3 C18,3.55228 18.4477,4 19,4 L20,4 L20,5 C20,5.55228 20.4477,6 21,6 C21.5523,6 22,5.55228 22,5 L22,4 C22,2.89543 21.1046,2 20,2 L19,2 Z M22,9 C22,8.44772 21.5523,8 21,8 C20.4477,8 20,8.44772 20,9 L20,10 C20,10.5523 20.4477,11 21,11 C21.5523,11 22,10.5523 22,10 L22,9 Z M22,14 C22,13.4477 21.5523,13 21,13 C20.4477,13 20,13.4477 20,14 L20,15 L19,15 C18.4477,15 18,15.4477 18,16 C18,16.5523 18.4477,17 19,17 L20,17 C21.1046,17 22,16.1046 22,15 L22,14 Z M4,7 C2.89543,7 2,7.89543 2,9 L2,20 C2,21.1046 2.89543,22 4,22 L15,22 C16.1046,22 17,21.1046 17,20 L17,9 C17,7.89543 16.1046,7 15,7 L4,7 Z" id="形状" fill="#09244B"></path>
            </g>
        </g>
    </g>
</svg>

<svg xmlns="http://www.w3.org/2000/svg" width="24" height="24"><g fill="none" fill-rule="evenodd"><path d="M24 0v24H0V0h24ZM12.593 23.258l-.011.002-.071.035-.02.004-.014-.004-.071-.035c-.01-.004-.019-.001-.024.005l-.004.01-.017.428.005.02.01.013.104.074.015.004.012-.004.104-.074.012-.016.004-.017-.017-.427c-.002-.01-.009-.017-.017-.018Zm.265-.113-.013.002-.185.093-.01.01-.003.011.018.43.005.012.008.007.201.093c.012.004.023 0 .029-.008l.004-.014-.034-.614c-.003-.012-.01-.02-.02-.022Zm-.715.002a.023.023 0 0 0-.027.006l-.006.014-.034.614c0 .012.007.02.017.024l.015-.002.201-.093.01-.008.004-.011.017-.43-.003-.012-.01-.01-.184-.092Z"/><path fill="#09244B" d="M9 2a2 2 0 0 0-2 2v1a1 1 0 0 0 2 0V4h1a1 1 0 1 0 0-2H9Zm5 0a1 1 0 1 0 0 2h1a1 1 0 1 0 0-2h-1Zm5 0a1 1 0 1 0 0 2h1v1a1 1 0 1 0 2 0V4a2 2 0 0 0-2-2h-1Zm3 7a1 1 0 1 0-2 0v1a1 1 0 1 0 2 0V9Zm0 5a1 1 0 1 0-2 0v1h-1a1 1 0 1 0 0 2h1a2 2 0 0 0 2-2v-1ZM4 7a2 2 0 0 0-2 2v11a2 2 0 0 0 2 2h11a2 2 0 0 0 2-2V9a2 2 0 0 0-2-2H4Z"/></g></svg>
